!!!COM: Palestrina, Giovanni Perluigi da
!!!OPR: Missa Brevis
!!!OTL: Kyrie
**kern	**kern	**kern	**kern
*Ibass	*Itenor	*Icalto	*Icant
!Bassus	!Tenor	!Altus	!Cantus
*clefF4	*clefGv2	*clefG2	*clefG2
*k[b-]	*k[b-]	*k[b-]	*k[b-]
*F:ion	*F:ion	*F:ion	*F:ion
*M4/2	*M4/2	*M4/2	*M4/2
=1	=1	=1	=1
0r	0r	0g	0r
=2	=2	=2	=2
0r	0r	1e	0r
.	.	1f	.
=3	=3	=3	=3
0c	0r	2.g	0r
.	.	4f	.
.	.	4e	.
.	.	4d	.
.	.	[2e	.
=4	=4	=4	=4
1A	0r	2e]	0r
.	.	4d	.
.	.	4c	.
1B-	.	1d	.
=5	=5	=5	=5
2.c	0r	2.c	0cc
4B-	.	4d	.
4A	.	2e	.
4G	.	.	.
[2A	.	2f	.
=6	=6	=6	=6
2A]	0r	2c	1a
4G	.	1f	.
4F	.	.	.
1G	.	.	1b-
.	.	2e	.
=7	=7	=7	=7
0F	0f	2.a	2.cc
.	.	4g	4b-
.	.	4f	4a
.	.	4e	4g
.	.	[2f	[2a
=8	=8	=8	=8
0r	1d	2f]	2a]
.	.	4e	4g
.	.	4d	4f
.	1e	1c	1g
=9	=9	=9	=9
0B-	2.f	1d	0f
.	4e	.	.
.	4d	1r	.
.	4c	.	.
.	[2d	.	.
=10	=10	=10	=10
1G	2d]	1g	0r
.	4c	.	.
.	4B-	.	.
1A	1c	2e	.
.	.	[2f	.
=11	=11	=11	=11
2.B-	1d	4f]	0r
.	.	4e	.
.	.	4d	.
4A	.	4c	.
4G	2.d	2B-	.
4F	.	.	.
[2G	.	[2b-	.
.	4c	.	.
=12	=12	=12	=12
2G]	4d	2b-]	1r
.	4e	.	.
4F	2.f	4a	.
4E	.	4g	.
1D	.	[1a	[1ff
.	4e	.	.
.	[2d	.	.
=13	=13	=13	=13
1F	4d]	1a]	1ff]
.	4c	.	.
.	1c	.	.
1G	.	1g	1dd
.	2B	.	.
=14	=14	=14	=14
2C	1c	2r	1ee
2c	.	2g	.
2A	1r	2a	2.ff
[2B-	.	[2d	.
.	.	.	4ee
=15	=15	=15	=15
4B-]	1f	4d]	4dd
4A	.	4e	4cc
2F	.	2f	1dd
1G	2d	1B-	.
.	2e	.	4cc
.	.	.	4b-
=16	=16	=16	=16
1F	2.f	2c	1a
.	.	1f	.
.	4e	.	.
1B-	4d	.	2f
.	4c	.	.
.	[2d	2d	2g
=17	=17	=17	=17
2.A	2d]	1e	1.a
.	4c	.	.
4G	4B-	.	.
4F	1A	2.f	.
4E	.	.	.
4D	.	.	2a
4C	.	4e	.
=18	=18	=18	=18
1BB-	1B-	4d	2g
.	.	4c	.
.	.	2d	1f
1C	1G	1c	.
.	.	.	2e
=19	=19	=19	=19
0F	0F	0c	0f
=20	=20	=20	=20
0r	0r	0f	1r
.	.	.	[1cc
=21	=21	=21	=21
0r	0r	1e	1cc]
.	.	2d	1b-
.	.	[2f	.
=22	=22	=22	=22
0r	0r	4f]	1a
.	.	4f	.
.	.	1f	.
.	.	.	1dd
.	.	4e	.
.	.	4d	.
=23	=23	=23	=23
0r	0c	2e	2.cc
.	.	1f	.
.	.	.	4b-
.	.	.	2a
.	.	2e	4g
.	.	.	4a
=24	=24	=24	=24
0r	1B-	2.d	4b-
.	.	.	4cc
.	.	.	2.dd
.	.	4e	.
.	1A	4f	.
.	.	4g	4cc
.	.	[2a	2cc
=25	=25	=25	=25
0r	1d	4a]	1f
.	.	4g	.
.	.	1f	.
.	1c	.	1g
.	.	2e	.
=26	=26	=26	=26
0F	2.A	0f	1a
.	4B-	.	.
.	2c	.	1a
.	[2d	.	.
=27	=27	=27	=27
1E	2d]	0r	1g
.	2c	.	.
1D	2d	.	1f
.	[2f	.	.
=28	=28	=28	=28
1G	2f]	1r	2b-
.	2e	.	2g
2.F	2d	[1f	2.a
.	2c	.	.
4G	.	.	4b-
=29	=29	=29	=29
2A	0r	1f]	2cc
2B-	.	.	1dd
2G	.	1e	.
2A	.	.	[2cc
=30	=30	=30	=30
2F	2r	1d	2cc]
2G	2d	.	2b
2C	2e	1g	1cc
2E	[2c	.	.
=31	=31	=31	=31
1D	2c]	1f	1r
.	2B	.	.
1C	2.c	2.e	[1cc
.	4d	4f	.
=32	=32	=32	=32
0r	2e	2g	1cc]
.	2f	2a	.
.	2B-	2d	1b-
.	[2d	[2f	.
=33	=33	=33	=33
0r	2d]	2f]	1a
.	2c	2e	.
.	1B-	2f	1dd
.	.	2g	.
=34	=34	=34	=34
0F	2.A	2a	1cc
.	.	2.f	.
.	4B-	.	.
.	2c	.	1a
.	.	4e	.
.	2F	[2d	.
=35	=35	=35	=35
1E	1G	2d]	1g
.	.	2c	.
1D	2A	1d	1f
.	[2d	.	.
=36	=36	=36	=36
0G	4d]	2.B-	0b-
.	4c	.	.
.	4B-	.	.
.	4A	4c	.
.	1B-	2d	.
.	.	2e	.
=37	=37	=37	=37
0F	0c	0f	0a
=38	=38	=38	=38
1F	0r	0r	0r
2E	.	.	.
2F	.	.	.
=39	=39	=39	=39
2D	1r	0r	0r
2E	.	.	.
2.F	1c	.	.
4E	.	.	.
=40	=40	=40	=40
2D	2B-	0r	0r
2C	2c	.	.
1D	2A	.	.
.	2B-	.	.
=41	=41	=41	=41
1C	2.c	1g	0r
.	4B-	.	.
1r	2A	2f	.
.	2G	2g	.
=42	=42	=42	=42
0r	1A	2e	1cc
.	.	2f	.
.	2G	2.g	2b-
.	[2c	.	2cc
.	.	4f	.
=43	=43	=43	=43
0r	2c]	2e	2a
.	2B-	2d	2b-
.	2A	2e	2.cc
.	2F	[2f	.
.	.	.	4b-
=44	=44	=44	=44
0r	1c	2f]	2a
.	.	2e	2g
.	2F	1f	1a
.	[2f	.	.
=45	=45	=45	=45
1c	2f]	2r	1g
.	2e	2c	.
2B-	2d	2d	2r
2c	2c	2e	[2cc
=46	=46	=46	=46
2A	1r	1f	2cc]
2B-	.	.	2dd
1c	2r	2e	1ee
.	2c	2g	.
=47	=47	=47	=47
2r	2.d	2.f	2.ff
2B-	.	.	.
.	4e	4g	8ee
.	.	.	8dd
2A	2f	2a	2cc
2B-	[2d	2d	2dd
=48	=48	=48	=48
2G	2d]	2g	2b-
2A	2c	1f	1a
1B-	1d	.	.
.	.	2d	2g
=49	=49	=49	=49
2r	1c	2.e	1a
2A	.	.	.
.	.	4f	.
2G	2r	2g	2b-
2A	2c	2e	2cc
=50	=50	=50	=50
2F	2A	2r	1dd
2G	2B-	2g	.
1A	1c	1e	2r
.	.	.	2cc
=51	=51	=51	=51
2r	1d	2f	2a
2G	.	2g	2b-
2F	2A	2a	2cc
2G	2B-	[2g	4b-
.	.	.	4a
=52	=52	=52	=52
2E	1c	2g]	2g
2F	.	4f	1cc
.	.	4e	.
1G	2r	2d	.
.	2G	2g	2b-
=53	=53	=53	=53
2r	1A	2e	2a
2F	.	2a	2.cc
2E	1c	2g	.
.	.	.	4b-
2F	.	[2f	[2a
=54	=54	=54	=54
2D	1B-	2f]	4a]
.	.	.	4f
2E	.	4e	1g
.	.	4d	.
1F	1A	[1c	.
.	.	.	[2f
=55	=55	=55	=55
0C	0G	0c]	2f]
.	.	.	4e
.	.	.	4d
.	.	.	1e
=56	=56	=56	=56
2r	2F	2r	[0f
2BB-	2B-	2d	.
2F	2A	2c	.
[2BB-	2B-	2d	.
=57	=57	=57	=57
2BB-]	2d	2B-	0f]
2AA	2c	2c	.
1BB-	1B-	1d	.
=58	=58	=58	=58
[0F	[0A	[0c	[0f
=59	=59	=59	=59
0F]	0A]	0c]	0f]
==	==	==	==
*-	*-	*-	*-
!!!CDT: 1525/^1526/-1594/2/2
!!!OCY: Italia
!!!AGN: Mass (Free)
!!!AST: renaissance, vocal
!!!ASW: Motet 1532 (Penet)
!!!PWK: Masses, Book 3
!!!RNB: Cadence finals: C
!!!YOR: Le Opere Complete, v. 6, p. 62
!!!YOO: Rome, Italy: Fratelli Scalera
!!!END: 1992//
!!!EED: John Miller
!!!YEC: Copyright 2000, John Miller
!!!YEN: United States of America
!!!YEM: Rights to all derivative electronic formats reserved.
!!!YEM: Refer to licensing agreement for further details.
!!!YEM: This file must be accompanied by the licensing agreement.
!!!YEM: A copy of the licensing agreement may be found at http://www.music-cog.ohio-state.edu/HumdrumDatabases/Palestrina/license.txt
!!!EMD: converted to Humdrum by Bret Aarden
